; generated by Slic3r 1.2.9 on 2018-03-13 at 23:08:15

; external perimeters extrusion width = 0.50mm
; perimeters extrusion width = 0.52mm
; infill extrusion width = 0.52mm
; solid infill extrusion width = 0.52mm
; top infill extrusion width = 0.52mm

M107
M104 S37 ; set temperature

; M109 S37 ; wait for temperature to be reached
G21 ; set units to millimeters
G90 ; use absolute coordinates
M82 ; use absolute distances for extrusion
G92 E0
G1 Z0.500 F3000.000


G1 Z1.000 F3000.000


G1 E-2.00000 F2400.00000
G92 E0
G1 X61.150 Y60.000 F3000.000
G1 E2.00000 F2400.00000
G1 X61.366 Y57.952 E2.02190 F300.000
G1 X62.002 Y55.994 E2.04380
G1 X63.032 Y54.211 E2.06571
G1 X64.399 Y52.692 E2.08744
G1 X66.089 Y51.463 E2.10967
G1 X67.956 Y50.632 E2.13141
G1 X69.986 Y50.204 E2.15347
G1 X72.030 Y50.204 E2.17521
G1 X74.044 Y50.632 E2.19711
G1 X75.925 Y51.470 E2.21901
G1 X77.591 Y52.680 E2.24092
G1 X78.968 Y54.211 E2.26282
G1 X79.998 Y55.994 E2.28472
G1 X80.634 Y57.952 E2.30662
G1 X80.850 Y60.000 E2.32852
G1 X80.634 Y62.048 E2.35043
G1 X79.998 Y64.006 E2.37233
G1 X78.968 Y65.789 E2.39423
G1 X77.601 Y67.308 E2.41597
G1 X75.911 Y68.537 E2.43820
G1 X74.044 Y69.368 E2.45993
G1 X72.014 Y69.796 E2.48200
G1 X69.970 Y69.796 E2.50373
G1 X67.956 Y69.368 E2.52563
G1 X66.075 Y68.530 E2.54754
G1 X64.409 Y67.320 E2.56944
G1 X63.032 Y65.789 E2.59134
G1 X62.002 Y64.006 E2.61324
G1 X61.366 Y62.048 E2.63515
G1 X61.150 Y60.000 E2.65705
G1 Z11.5 F80 
G4 S10
G1 Z1.500 F80 


G1 X61.152 Y59.984 F3000.000
G1 X61.366 Y57.952 E2.67878 F300.000
G1 X62.002 Y55.994 E2.70069
G1 X63.032 Y54.211 E2.72259
G1 X64.409 Y52.680 E2.74449
G1 X66.075 Y51.470 E2.76639
G1 X67.956 Y50.632 E2.78829
G1 X69.970 Y50.204 E2.81020
G1 X72.014 Y50.204 E2.83193
G1 X74.044 Y50.632 E2.85400
G1 X75.911 Y51.463 E2.87573
G1 X77.601 Y52.692 E2.89796
G1 X78.968 Y54.211 E2.91970
G1 X79.998 Y55.994 E2.94160
G1 X80.634 Y57.952 E2.96350
G1 X80.850 Y60.000 E2.98540
G1 X80.634 Y62.048 E3.00731
G1 X79.998 Y64.006 E3.02921
G1 X78.968 Y65.789 E3.05111
G1 X77.591 Y67.320 E3.07301
G1 X75.925 Y68.530 E3.09492
G1 X74.044 Y69.368 E3.11682
G1 X72.030 Y69.796 E3.13872
G1 X69.986 Y69.796 E3.16046
G1 X67.956 Y69.368 E3.18252
G1 X66.089 Y68.537 E3.20426
G1 X64.399 Y67.308 E3.22649
G1 X63.032 Y65.789 E3.24822
G1 X62.002 Y64.006 E3.27012
G1 X61.366 Y62.048 E3.29203
G1 X61.152 Y59.984 E3.31409
M106 S232.05
G1 Z12.0 F80 
G4 S10
G1 Z2.000 F80 


G1 X61.150 Y60.000 F3000.000
G1 X61.366 Y57.952 E3.33599 F300.000
G1 X62.002 Y55.994 E3.35790
G1 X63.032 Y54.211 E3.37980
G1 X64.399 Y52.692 E3.40153
G1 X66.089 Y51.463 E3.42376
G1 X67.956 Y50.632 E3.44550
G1 X69.986 Y50.204 E3.46756
G1 X72.030 Y50.204 E3.48930
G1 X74.044 Y50.632 E3.51120
G1 X75.925 Y51.470 E3.53311
G1 X77.591 Y52.680 E3.55501
G1 X78.968 Y54.211 E3.57691
G1 X79.998 Y55.994 E3.59881
G1 X80.634 Y57.952 E3.62071
G1 X80.850 Y60.000 E3.64262
G1 X80.634 Y62.048 E3.66452
G1 X79.998 Y64.006 E3.68642
G1 X78.968 Y65.789 E3.70832
G1 X77.601 Y67.308 E3.73006
G1 X75.911 Y68.537 E3.75229
G1 X74.044 Y69.368 E3.77402
G1 X72.014 Y69.796 E3.79609
G1 X69.970 Y69.796 E3.81782
G1 X67.956 Y69.368 E3.83973
G1 X66.075 Y68.530 E3.86163
G1 X64.409 Y67.320 E3.88353
G1 X63.032 Y65.789 E3.90543
G1 X62.002 Y64.006 E3.92734
G1 X61.366 Y62.048 E3.94924
G1 X61.150 Y60.000 E3.97114
G1 Z12.5 F80 
G4 S10
G1 Z2.500 F80 


G1 X61.152 Y59.984 F3000.000
G1 X61.366 Y57.952 E3.99288 F300.000
G1 X62.002 Y55.994 E4.01478
G1 X63.032 Y54.211 E4.03668
G1 X64.409 Y52.680 E4.05858
G1 X66.075 Y51.470 E4.08048
G1 X67.956 Y50.632 E4.10239
G1 X69.970 Y50.204 E4.12429
G1 X72.014 Y50.204 E4.14602
G1 X74.044 Y50.632 E4.16809
G1 X75.911 Y51.463 E4.18983
G1 X77.601 Y52.692 E4.21205
G1 X78.968 Y54.211 E4.23379
G1 X79.998 Y55.994 E4.25569
G1 X80.634 Y57.952 E4.27759
G1 X80.850 Y60.000 E4.29950
G1 X80.634 Y62.048 E4.32140
G1 X79.998 Y64.006 E4.34330
G1 X78.968 Y65.789 E4.36520
G1 X77.591 Y67.320 E4.38711
G1 X75.925 Y68.530 E4.40901
G1 X74.044 Y69.368 E4.43091
G1 X72.030 Y69.796 E4.45281
G1 X69.986 Y69.796 E4.47455
G1 X67.942 Y69.362 E4.49678
G1 X66.075 Y68.530 E4.51851
G1 X64.399 Y67.308 E4.54058
G1 X63.032 Y65.789 E4.56231
G1 X62.002 Y64.006 E4.58422
G1 X61.366 Y62.048 E4.60612
G1 X61.152 Y59.984 E4.62818
G1 Z13.0 F80 
G4 S10
G1 Z3.000 F80 


G1 X61.152 Y59.984 F3000.000
G1 X61.366 Y57.952 E4.64992 F300.000
G1 X62.002 Y55.994 E4.67182
G1 X63.032 Y54.211 E4.69372
G1 X64.409 Y52.680 E4.71563
G1 X66.075 Y51.470 E4.73753
G1 X67.956 Y50.632 E4.75943
G1 X69.970 Y50.204 E4.78133
G1 X72.014 Y50.204 E4.80307
G1 X74.044 Y50.632 E4.82513
G1 X75.911 Y51.463 E4.84687
G1 X77.601 Y52.692 E4.86910
G1 X78.968 Y54.211 E4.89084
G1 X79.998 Y55.994 E4.91274
G1 X80.634 Y57.952 E4.93464
G1 X80.850 Y60.000 E4.95654
G1 X80.634 Y62.048 E4.97844
G1 X79.998 Y64.006 E5.00035
G1 X78.968 Y65.789 E5.02225
G1 X77.591 Y67.320 E5.04415
G1 X75.925 Y68.530 E5.06605
G1 X74.044 Y69.368 E5.08795
G1 X72.030 Y69.796 E5.10986
G1 X69.986 Y69.796 E5.13159
G1 X67.956 Y69.368 E5.15366
G1 X66.089 Y68.537 E5.17539
G1 X64.399 Y67.308 E5.19762
G1 X63.032 Y65.789 E5.21936
G1 X62.002 Y64.006 E5.24126
G1 X61.366 Y62.048 E5.26316
G1 X61.152 Y59.984 E5.28523
G1 Z13.5 F80 
G4 S10
G1 Z3.500 F80 


G1 X61.366 Y57.952 E5.30696 F300.000
G1 X62.002 Y55.994 E5.32887
G1 X63.032 Y54.211 E5.35077
G1 X64.409 Y52.680 E5.37267
G1 X66.075 Y51.470 E5.39457
G1 X67.956 Y50.632 E5.41648
G1 X69.970 Y50.204 E5.43838
G1 X72.014 Y50.204 E5.46011
G1 X74.044 Y50.632 E5.48218
G1 X75.911 Y51.463 E5.50391
G1 X77.601 Y52.692 E5.52614
G1 X78.968 Y54.211 E5.54788
G1 X79.998 Y55.994 E5.56978
G1 X80.634 Y57.952 E5.59168
G1 X80.850 Y60.000 E5.61359
G1 X80.634 Y62.048 E5.63549
G1 X79.998 Y64.006 E5.65739
G1 X78.968 Y65.789 E5.67929
G1 X77.591 Y67.320 E5.70119
G1 X75.925 Y68.530 E5.72310
G1 X74.044 Y69.368 E5.74500
G1 X72.030 Y69.796 E5.76690
G1 X69.986 Y69.796 E5.78864
G1 X67.956 Y69.368 E5.81070
G1 X66.089 Y68.537 E5.83244
G1 X64.399 Y67.308 E5.85467
G1 X63.032 Y65.789 E5.87640
G1 X62.002 Y64.006 E5.89831
G1 X61.366 Y62.048 E5.92021
G1 X61.152 Y59.984 E5.94227
G1 Z14.0 F80 
G4 S10
G1 Z4.000 F80 


G1 X61.150 Y60.000 F3000.000
G1 X61.366 Y57.952 E5.96418 F300.000
G1 X62.002 Y55.994 E5.98608
G1 X63.032 Y54.211 E6.00798
G1 X64.409 Y52.680 E6.02988
G1 X66.075 Y51.470 E6.05178
G1 X67.956 Y50.632 E6.07369
G1 X69.970 Y50.204 E6.09559
G1 X72.014 Y50.204 E6.11732
G1 X74.044 Y50.632 E6.13939
G1 X75.911 Y51.463 E6.16113
G1 X77.601 Y52.692 E6.18335
G1 X78.968 Y54.211 E6.20509
G1 X79.998 Y55.994 E6.22699
G1 X80.634 Y57.952 E6.24889
G1 X80.850 Y60.000 E6.27080
G1 X80.634 Y62.048 E6.29270
G1 X79.998 Y64.006 E6.31460
G1 X78.968 Y65.789 E6.33650
G1 X77.591 Y67.320 E6.35841
G1 X75.925 Y68.530 E6.38031
G1 X74.044 Y69.368 E6.40221
G1 X72.030 Y69.796 E6.42411
G1 X69.986 Y69.796 E6.44585
G1 X67.956 Y69.368 E6.46791
G1 X66.089 Y68.537 E6.48965
G1 X64.399 Y67.308 E6.51188
G1 X63.032 Y65.789 E6.53361
G1 X62.002 Y64.006 E6.55552
G1 X61.366 Y62.048 E6.57742
G1 X61.150 Y60.000 E6.59932
G1 Z14.5 F80 
G4 S10
G1 Z4.500 F80 


G1 X61.152 Y59.984 F3000.000
G1 X61.366 Y57.952 E6.62106 F300.000
G1 X62.002 Y55.994 E6.64296
G1 X63.032 Y54.211 E6.66486
G1 X64.409 Y52.680 E6.68676
G1 X66.075 Y51.470 E6.70866
G1 X67.956 Y50.632 E6.73057
G1 X69.970 Y50.204 E6.75247
G1 X72.014 Y50.204 E6.77421
G1 X74.044 Y50.632 E6.79627
G1 X75.911 Y51.463 E6.81801
G1 X77.601 Y52.692 E6.84024
G1 X78.968 Y54.211 E6.86197
G1 X79.998 Y55.994 E6.88387
G1 X80.634 Y57.952 E6.90578
G1 X80.850 Y60.000 E6.92768
G1 X80.634 Y62.048 E6.94958
G1 X79.998 Y64.006 E6.97148
G1 X78.968 Y65.789 E6.99338
G1 X77.591 Y67.320 E7.01529
G1 X75.925 Y68.530 E7.03719
G1 X74.044 Y69.368 E7.05909
G1 X72.030 Y69.796 E7.08099
G1 X69.986 Y69.796 E7.10273
G1 X67.956 Y69.368 E7.12479
G1 X66.089 Y68.537 E7.14653
G1 X64.399 Y67.308 E7.16876
G1 X63.032 Y65.789 E7.19050
G1 X62.002 Y64.006 E7.21240
G1 X61.366 Y62.048 E7.23430
G1 X61.152 Y59.984 E7.25637
G1 Z15.0 F80 
G4 S10
G1 Z5.000 F80 


G1 X61.152 Y59.984 F3000.000
G1 X61.366 Y57.952 E7.27810 F300.000
G1 X62.002 Y55.994 E7.30000
G1 X63.032 Y54.211 E7.32191
G1 X64.409 Y52.680 E7.34381
G1 X66.075 Y51.470 E7.36571
G1 X67.956 Y50.632 E7.38761
G1 X69.970 Y50.204 E7.40951
G1 X72.014 Y50.204 E7.43125
G1 X74.044 Y50.632 E7.45332
G1 X75.911 Y51.463 E7.47505
G1 X77.601 Y52.692 E7.49728
G1 X78.968 Y54.211 E7.51902
G1 X79.998 Y55.994 E7.54092
G1 X80.634 Y57.952 E7.56282
G1 X80.850 Y60.000 E7.58472
G1 X80.634 Y62.048 E7.60662
G1 X79.998 Y64.006 E7.62853
G1 X78.968 Y65.789 E7.65043
G1 X77.591 Y67.320 E7.67233
G1 X75.925 Y68.530 E7.69423
G1 X74.044 Y69.368 E7.71614
G1 X72.030 Y69.796 E7.73804
G1 X69.986 Y69.796 E7.75977
G1 X67.942 Y69.362 E7.78200
G1 X66.075 Y68.530 E7.80374
G1 X64.399 Y67.308 E7.82580
G1 X63.032 Y65.789 E7.84754
G1 X62.002 Y64.006 E7.86944
G1 X61.366 Y62.048 E7.89134
G1 X61.152 Y59.984 E7.91341
G1 Z15.5 F80 
G4 S10
G1 Z5.500 F80 


G1 X61.150 Y60.000 F3000.000
G1 X61.366 Y57.952 E7.93531 F300.000
G1 X62.002 Y55.994 E7.95721
G1 X63.032 Y54.211 E7.97912
G1 X64.399 Y52.692 E8.00085
G1 X66.089 Y51.463 E8.02308
G1 X67.956 Y50.632 E8.04482
G1 X69.986 Y50.204 E8.06688
G1 X72.030 Y50.204 E8.08862
G1 X74.044 Y50.632 E8.11052
G1 X75.925 Y51.470 E8.13242
G1 X77.591 Y52.680 E8.15433
G1 X78.968 Y54.211 E8.17623
G1 X79.998 Y55.994 E8.19813
G1 X80.634 Y57.952 E8.22003
G1 X80.850 Y60.000 E8.24193
G1 X80.634 Y62.048 E8.26384
G1 X79.998 Y64.006 E8.28574
G1 X78.968 Y65.789 E8.30764
G1 X77.601 Y67.308 E8.32938
G1 X75.911 Y68.537 E8.35161
G1 X74.044 Y69.368 E8.37334
G1 X72.014 Y69.796 E8.39541
G1 X69.970 Y69.796 E8.41714
G1 X67.956 Y69.368 E8.43904
G1 X66.075 Y68.530 E8.46095
G1 X64.409 Y67.320 E8.48285
G1 X63.032 Y65.789 E8.50475
G1 X62.002 Y64.006 E8.52665
G1 X61.366 Y62.048 E8.54856
G1 X61.150 Y60.000 E8.57046
G1 Z16.0 F80 
G4 S10
G1 Z6.000 F80 


G1 X61.152 Y59.984 F3000.000
G1 X61.366 Y57.952 E8.59219 F300.000
G1 X62.002 Y55.994 E8.61410
G1 X63.032 Y54.211 E8.63600
G1 X64.409 Y52.680 E8.65790
G1 X66.075 Y51.470 E8.67980
G1 X67.956 Y50.632 E8.70170
G1 X69.970 Y50.204 E8.72361
G1 X72.014 Y50.204 E8.74534
G1 X74.044 Y50.632 E8.76741
G1 X75.911 Y51.463 E8.78914
G1 X77.601 Y52.692 E8.81137
G1 X78.968 Y54.211 E8.83311
G1 X79.998 Y55.994 E8.85501
G1 X80.634 Y57.952 E8.87691
G1 X80.850 Y60.000 E8.89881
G1 X80.634 Y62.048 E8.92072
G1 X79.998 Y64.006 E8.94262
G1 X78.968 Y65.789 E8.96452
G1 X77.591 Y67.320 E8.98642
G1 X75.925 Y68.530 E9.00833
G1 X74.044 Y69.368 E9.03023
G1 X72.030 Y69.796 E9.05213
G1 X69.986 Y69.796 E9.07387
G1 X67.956 Y69.368 E9.09593
G1 X66.089 Y68.537 E9.11767
G1 X64.399 Y67.308 E9.13990
G1 X63.032 Y65.789 E9.16163
G1 X62.002 Y64.006 E9.18353
G1 X61.366 Y62.048 E9.20544
G1 X61.152 Y59.984 E9.22750
G1 Z16.5 F80 
G4 S10
G1 Z6.500 F80 


G1 X61.150 Y60.000 F3000.000
G1 X61.366 Y57.952 E9.24940 F300.000
G1 X62.002 Y55.994 E9.27131
G1 X63.032 Y54.211 E9.29321
G1 X64.399 Y52.692 E9.31494
G1 X66.089 Y51.463 E9.33717
G1 X67.956 Y50.632 E9.35891
G1 X69.986 Y50.204 E9.38097
G1 X72.030 Y50.204 E9.40271
G1 X74.044 Y50.632 E9.42461
G1 X75.925 Y51.470 E9.44652
G1 X77.591 Y52.680 E9.46842
G1 X78.968 Y54.211 E9.49032
G1 X79.998 Y55.994 E9.51222
G1 X80.634 Y57.952 E9.53412
G1 X80.850 Y60.000 E9.55603
G1 X80.634 Y62.048 E9.57793
G1 X79.998 Y64.006 E9.59983
G1 X78.968 Y65.789 E9.62173
G1 X77.601 Y67.308 E9.64347
G1 X75.911 Y68.537 E9.66570
G1 X74.044 Y69.368 E9.68743
G1 X72.014 Y69.796 E9.70950
G1 X69.970 Y69.796 E9.73123
G1 X67.956 Y69.368 E9.75314
G1 X66.075 Y68.530 E9.77504
G1 X64.409 Y67.320 E9.79694
G1 X63.032 Y65.789 E9.81884
G1 X62.002 Y64.006 E9.84075
G1 X61.366 Y62.048 E9.86265
G1 X61.150 Y60.000 E9.88455
G1 Z17.0 F80 
G4 S10
G1 Z7.000 F80 


G1 X61.152 Y59.984 F3000.000
G1 X61.366 Y57.952 E9.90629 F300.000
G1 X62.002 Y55.994 E9.92819
G1 X63.032 Y54.211 E9.95009
G1 X64.409 Y52.680 E9.97199
G1 X66.075 Y51.470 E9.99389
G1 X67.956 Y50.632 E10.01580
G1 X69.970 Y50.204 E10.03770
G1 X72.014 Y50.204 E10.05943
G1 X74.044 Y50.632 E10.08150
G1 X75.911 Y51.463 E10.10324
G1 X77.601 Y52.692 E10.12546
G1 X78.968 Y54.211 E10.14720
G1 X79.998 Y55.994 E10.16910
G1 X80.634 Y57.952 E10.19100
G1 X80.850 Y60.000 E10.21291
G1 X80.634 Y62.048 E10.23481
G1 X79.998 Y64.006 E10.25671
G1 X78.968 Y65.789 E10.27861
G1 X77.591 Y67.320 E10.30052
G1 X75.925 Y68.530 E10.32242
G1 X74.044 Y69.368 E10.34432
G1 X72.030 Y69.796 E10.36622
G1 X69.986 Y69.796 E10.38796
G1 X67.956 Y69.368 E10.41002
G1 X66.089 Y68.537 E10.43176
G1 X64.399 Y67.308 E10.45399
G1 X63.032 Y65.789 E10.47572
G1 X62.002 Y64.006 E10.49763
G1 X61.366 Y62.048 E10.51953
G1 X61.152 Y59.984 E10.54159
G1 Z17.5 F80 
G4 S10
G1 Z7.500 F80 


G1 X61.366 Y57.952 E10.56333 F300.000
G1 X62.002 Y55.994 E10.58523
G1 X63.032 Y54.211 E10.60713
G1 X64.409 Y52.680 E10.62904
G1 X66.075 Y51.470 E10.65094
G1 X67.956 Y50.632 E10.67284
G1 X69.970 Y50.204 E10.69474
G1 X72.014 Y50.204 E10.71648
G1 X74.044 Y50.632 E10.73854
G1 X75.911 Y51.463 E10.76028
G1 X77.601 Y52.692 E10.78251
G1 X78.968 Y54.211 E10.80425
G1 X79.998 Y55.994 E10.82615
G1 X80.634 Y57.952 E10.84805
G1 X80.850 Y60.000 E10.86995
G1 X80.634 Y62.048 E10.89185
G1 X79.998 Y64.006 E10.91376
G1 X78.968 Y65.789 E10.93566
G1 X77.591 Y67.320 E10.95756
G1 X75.925 Y68.530 E10.97946
G1 X74.044 Y69.368 E11.00136
G1 X72.030 Y69.796 E11.02327
G1 X69.986 Y69.796 E11.04500
G1 X67.956 Y69.368 E11.06707
G1 X66.089 Y68.537 E11.08880
G1 X64.399 Y67.308 E11.11103
G1 X63.032 Y65.789 E11.13277
G1 X62.002 Y64.006 E11.15467
G1 X61.366 Y62.048 E11.17657
G1 X61.152 Y59.984 E11.19864
G1 Z18.0 F80 
G4 S10
G1 Z8.000 F80 


G1 X61.150 Y60.000 F3000.000
G1 X61.366 Y57.952 E11.22054 F300.000
G1 X62.002 Y55.994 E11.24244
G1 X63.032 Y54.211 E11.26434
G1 X64.399 Y52.692 E11.28608
G1 X66.089 Y51.463 E11.30831
G1 X67.956 Y50.632 E11.33005
G1 X69.986 Y50.204 E11.35211
G1 X72.030 Y50.204 E11.37385
G1 X74.044 Y50.632 E11.39575
G1 X75.925 Y51.470 E11.41765
G1 X77.591 Y52.680 E11.43955
G1 X78.968 Y54.211 E11.46146
G1 X79.998 Y55.994 E11.48336
G1 X80.634 Y57.952 E11.50526
G1 X80.850 Y60.000 E11.52716
G1 X80.634 Y62.048 E11.54906
G1 X79.998 Y64.006 E11.57097
G1 X78.968 Y65.789 E11.59287
G1 X77.601 Y67.308 E11.61460
G1 X75.911 Y68.537 E11.63683
G1 X74.044 Y69.368 E11.65857
G1 X72.014 Y69.796 E11.68064
G1 X69.970 Y69.796 E11.70237
G1 X67.956 Y69.368 E11.72427
G1 X66.075 Y68.530 E11.74618
G1 X64.409 Y67.320 E11.76808
G1 X63.032 Y65.789 E11.78998
G1 X62.002 Y64.006 E11.81188
G1 X61.366 Y62.048 E11.83378
G1 X61.150 Y60.000 E11.85569
G1 Z18.5 F80 
G4 S10
G1 Z8.500 F80 


G1 X61.150 Y60.000 F3000.000
G1 X61.366 Y57.952 E11.87759 F300.000
G1 X62.002 Y55.994 E11.89949
G1 X63.032 Y54.211 E11.92139
G1 X64.409 Y52.680 E11.94329
G1 X66.075 Y51.470 E11.96520
G1 X67.956 Y50.632 E11.98710
G1 X69.970 Y50.204 E12.00900
G1 X72.014 Y50.204 E12.03074
G1 X74.044 Y50.632 E12.05280
G1 X75.911 Y51.463 E12.07454
G1 X77.601 Y52.692 E12.09677
G1 X78.968 Y54.211 E12.11850
G1 X79.998 Y55.994 E12.14041
G1 X80.634 Y57.952 E12.16231
G1 X80.850 Y60.000 E12.18421
G1 X80.634 Y62.048 E12.20611
G1 X79.998 Y64.006 E12.22801
G1 X78.968 Y65.789 E12.24992
G1 X77.591 Y67.320 E12.27182
G1 X75.925 Y68.530 E12.29372
G1 X74.044 Y69.368 E12.31562
G1 X72.030 Y69.796 E12.33752
G1 X69.986 Y69.796 E12.35926
G1 X67.942 Y69.362 E12.38149
G1 X66.075 Y68.530 E12.40323
G1 X64.399 Y67.308 E12.42529
G1 X63.032 Y65.789 E12.44703
G1 X62.002 Y64.006 E12.46893
G1 X61.366 Y62.048 E12.49083
G1 X61.150 Y60.000 E12.51273
G1 Z19.0 F80 
G4 S10
G1 Z9.000 F80 


G1 X61.152 Y59.984 F3000.000
G1 X61.366 Y57.952 E12.53447 F300.000
G1 X62.002 Y55.994 E12.55637
G1 X63.032 Y54.211 E12.57827
G1 X64.409 Y52.680 E12.60018
G1 X66.075 Y51.470 E12.62208
G1 X67.956 Y50.632 E12.64398
G1 X69.970 Y50.204 E12.66588
G1 X72.014 Y50.204 E12.68762
G1 X74.044 Y50.632 E12.70968
G1 X75.911 Y51.463 E12.73142
G1 X77.601 Y52.692 E12.75365
G1 X78.968 Y54.211 E12.77538
G1 X79.998 Y55.994 E12.79729
G1 X80.634 Y57.952 E12.81919
G1 X80.850 Y60.000 E12.84109
G1 X80.634 Y62.048 E12.86299
G1 X79.998 Y64.006 E12.88490
G1 X78.968 Y65.789 E12.90680
G1 X77.591 Y67.320 E12.92870
G1 X75.925 Y68.530 E12.95060
G1 X74.044 Y69.368 E12.97250
G1 X72.030 Y69.796 E12.99441
G1 X69.986 Y69.796 E13.01614
