; generated by Slic3r 1.2.9 on 2018-03-13 at 03:27:42

; external perimeters extrusion width = 0.50mm
; perimeters extrusion width = 1.00mm
; infill extrusion width = 0.52mm
; solid infill extrusion width = 0.52mm
; top infill extrusion width = 0.52mm

M107 ; disable fan
; M190 S20 ; set bed temperature
M104 S37 ; set temperature
; G28 ; home all axes
G1 Z5 F5000 ; lift nozzle

; M109 S37 ; wait for temperature to be reached
G21 ; set units to millimeters
G90 ; use absolute coordinates
M82 ; use absolute distances for extrusion
G92 E0 ; reset extrusion distance
G1 Z0.700 F3000.000 ; move to next layer (0)
G1 Z1.200 F3000.000 ; move to next layer (1)
G10 ; retract
G92 E0 ; reset extrusion distance
G1 X101.150 Y50.000 F3000.000 ; move to first perimeter point
G11 ; unretract
G92 E0 ; reset extrusion distance
G1 X101.366 Y47.952 E3.05691 F300.000 ; perimeter
G1 X102.002 Y45.994 E6.11381 ; perimeter
G1 X103.032 Y44.211 E9.17071 ; perimeter
G1 X104.399 Y42.692 E12.20439 ; perimeter
G1 X106.089 Y41.463 E15.30697 ; perimeter
G1 X107.956 Y40.632 E18.34066 ; perimeter
G1 X109.986 Y40.204 E21.42039 ; perimeter
G1 X112.030 Y40.204 E24.45408 ; perimeter
G1 X114.044 Y40.632 E27.51099 ; perimeter
G1 X115.925 Y41.470 E30.56790 ; perimeter
G1 X117.591 Y42.680 E33.62480 ; perimeter
G1 X118.968 Y44.211 E36.68170 ; perimeter
G1 X119.998 Y45.994 E39.73859 ; perimeter
G1 X120.634 Y47.952 E42.79550 ; perimeter
G1 X120.850 Y50.000 E45.85241 ; perimeter
G1 X120.634 Y52.048 E48.90932 ; perimeter
G1 X119.998 Y54.006 E51.96622 ; perimeter
G1 X118.968 Y55.789 E55.02312 ; perimeter
G1 X117.601 Y57.308 E58.05680 ; perimeter
G1 X115.911 Y58.537 E61.15938 ; perimeter
G1 X114.044 Y59.368 E64.19307 ; perimeter
G1 X112.014 Y59.796 E67.27280 ; perimeter
G1 X109.970 Y59.796 E70.30649 ; perimeter
G1 X107.956 Y59.368 E73.36340 ; perimeter
G1 X106.075 Y58.530 E76.42031 ; perimeter
G1 X104.409 Y57.320 E79.47721 ; perimeter
G1 X103.032 Y55.789 E82.53411 ; perimeter
G1 X102.002 Y54.006 E85.59101 ; perimeter
G1 X101.366 Y52.048 E88.64791 ; perimeter
G1 X101.150 Y50.000 E91.70482 ; perimeter
G1 Z11.7 F3000.000 ; move to next layer (2)
G4 S10
G1 Z1.700 F3000.000 ; move to next layer (2)
G1 X101.152 Y49.984 F3000.000 ; move to first perimeter point
G1 X101.366 Y47.952 E94.73851 F300.000 ; perimeter
G1 X102.002 Y45.994 E97.79542 ; perimeter
G1 X103.032 Y44.211 E100.85231 ; perimeter
G1 X104.409 Y42.680 E103.90922 ; perimeter
G1 X106.075 Y41.470 E106.96612 ; perimeter
G1 X107.956 Y40.632 E110.02302 ; perimeter
G1 X109.970 Y40.204 E113.07994 ; perimeter
G1 X112.014 Y40.204 E116.11363 ; perimeter
G1 X114.044 Y40.632 E119.19336 ; perimeter
G1 X115.911 Y41.463 E122.22704 ; perimeter
G1 X117.601 Y42.692 E125.32963 ; perimeter
G1 X118.968 Y44.211 E128.36331 ; perimeter
G1 X119.998 Y45.994 E131.42020 ; perimeter
G1 X120.634 Y47.952 E134.47711 ; perimeter
G1 X120.850 Y50.000 E137.53402 ; perimeter
G1 X120.634 Y52.048 E140.59092 ; perimeter
G1 X119.998 Y54.006 E143.64783 ; perimeter
G1 X118.968 Y55.789 E146.70473 ; perimeter
G1 X117.591 Y57.320 E149.76162 ; perimeter
G1 X115.925 Y58.530 E152.81853 ; perimeter
G1 X114.044 Y59.368 E155.87543 ; perimeter
G1 X112.030 Y59.796 E158.93235 ; perimeter
G1 X109.986 Y59.796 E161.96604 ; perimeter
G1 X107.956 Y59.368 E165.04577 ; perimeter
G1 X106.089 Y58.537 E168.07946 ; perimeter
G1 X104.399 Y57.308 E171.18204 ; perimeter
G1 X103.032 Y55.789 E174.21572 ; perimeter
G1 X102.002 Y54.006 E177.27261 ; perimeter
G1 X101.366 Y52.048 E180.32952 ; perimeter
G1 X101.152 Y49.984 E183.40926 ; perimeter
M106 S232.05 ; enable fan
G1 Z12.2 F3000.000 ; move to next layer (3)
G4 S10
G1 Z2.200 F3000.000 ; move to next layer (3)
G1 X101.150 Y50.000 F3000.000 ; move to first perimeter point
G1 X101.366 Y47.952 E186.46617 F300.000 ; perimeter
G1 X102.002 Y45.994 E189.52307 ; perimeter
G1 X103.032 Y44.211 E192.57997 ; perimeter
G1 X104.399 Y42.692 E195.61365 ; perimeter
G1 X106.089 Y41.463 E198.71623 ; perimeter
G1 X107.956 Y40.632 E201.74991 ; perimeter
G1 X109.986 Y40.204 E204.82965 ; perimeter
G1 X112.030 Y40.204 E207.86334 ; perimeter
G1 X114.044 Y40.632 E210.92025 ; perimeter
G1 X115.925 Y41.470 E213.97716 ; perimeter
G1 X117.591 Y42.680 E217.03406 ; perimeter
G1 X118.968 Y44.211 E220.09096 ; perimeter
G1 X119.998 Y45.994 E223.14785 ; perimeter
G1 X120.634 Y47.952 E226.20476 ; perimeter
G1 X120.850 Y50.000 E229.26167 ; perimeter
G1 X120.634 Y52.048 E232.31857 ; perimeter
G1 X119.998 Y54.006 E235.37548 ; perimeter
G1 X118.968 Y55.789 E238.43238 ; perimeter
G1 X117.601 Y57.308 E241.46606 ; perimeter
G1 X115.911 Y58.537 E244.56864 ; perimeter
G1 X114.044 Y59.368 E247.60232 ; perimeter
G1 X112.014 Y59.796 E250.68206 ; perimeter
G1 X109.970 Y59.796 E253.71575 ; perimeter
G1 X107.956 Y59.368 E256.77266 ; perimeter
G1 X106.075 Y58.530 E259.82957 ; perimeter
G1 X104.409 Y57.320 E262.88647 ; perimeter
G1 X103.032 Y55.789 E265.94337 ; perimeter
G1 X102.002 Y54.006 E269.00027 ; perimeter
G1 X101.366 Y52.048 E272.05717 ; perimeter
G1 X101.150 Y50.000 E275.11408 ; perimeter
G1 Z12.7 F3000.000 ; move to next layer (4)
G4 S10
G1 Z2.700 F3000.000 ; move to next layer (4)
G1 X101.152 Y49.984 F3000.000 ; move to first perimeter point
G1 X101.366 Y47.952 E278.14778 F300.000 ; perimeter
G1 X102.002 Y45.994 E281.20468 ; perimeter
G1 X103.032 Y44.211 E284.26158 ; perimeter
G1 X104.409 Y42.680 E287.31848 ; perimeter
G1 X106.075 Y41.470 E290.37538 ; perimeter
G1 X107.956 Y40.632 E293.43229 ; perimeter
G1 X109.970 Y40.204 E296.48920 ; perimeter
G1 X112.014 Y40.204 E299.52289 ; perimeter
G1 X114.044 Y40.632 E302.60262 ; perimeter
G1 X115.911 Y41.463 E305.63631 ; perimeter
G1 X117.601 Y42.692 E308.73889 ; perimeter
G1 X118.968 Y44.211 E311.77257 ; perimeter
G1 X119.998 Y45.994 E314.82947 ; perimeter
G1 X120.634 Y47.952 E317.88637 ; perimeter
G1 X120.850 Y50.000 E320.94328 ; perimeter
G1 X120.634 Y52.048 E324.00019 ; perimeter
G1 X119.998 Y54.006 E327.05710 ; perimeter
G1 X118.968 Y55.789 E330.11399 ; perimeter
G1 X117.591 Y57.320 E333.17089 ; perimeter
G1 X115.925 Y58.530 E336.22779 ; perimeter
G1 X114.044 Y59.368 E339.28470 ; perimeter
G1 X112.030 Y59.796 E342.34161 ; perimeter
G1 X109.986 Y59.796 E345.37530 ; perimeter
G1 X107.942 Y59.362 E348.47785 ; perimeter
G1 X106.075 Y58.530 E351.51156 ; perimeter
G1 X104.399 Y57.308 E354.59130 ; perimeter
G1 X103.032 Y55.789 E357.62498 ; perimeter
G1 X102.002 Y54.006 E360.68188 ; perimeter
G1 X101.366 Y52.048 E363.73879 ; perimeter
G1 X101.152 Y49.984 E366.81852 ; perimeter
G1 Z13.2 F3000.000 ; move to next layer (5)
G4 S10
G1 Z3.200 F3000.000 ; move to next layer (5)
G1 X101.152 Y49.984 F3000.000 ; move to first perimeter point
G1 X101.366 Y47.952 E369.85222 F300.000 ; perimeter
G1 X102.002 Y45.994 E372.90912 ; perimeter
G1 X103.032 Y44.211 E375.96602 ; perimeter
G1 X104.409 Y42.680 E379.02292 ; perimeter
G1 X106.075 Y41.470 E382.07982 ; perimeter
G1 X107.956 Y40.632 E385.13673 ; perimeter
G1 X109.970 Y40.204 E388.19364 ; perimeter
G1 X112.014 Y40.204 E391.22733 ; perimeter
G1 X114.044 Y40.632 E394.30706 ; perimeter
G1 X115.911 Y41.463 E397.34075 ; perimeter
G1 X117.601 Y42.692 E400.44333 ; perimeter
G1 X118.968 Y44.211 E403.47701 ; perimeter
G1 X119.998 Y45.994 E406.53391 ; perimeter
G1 X120.634 Y47.952 E409.59081 ; perimeter
G1 X120.850 Y50.000 E412.64772 ; perimeter
G1 X120.634 Y52.048 E415.70463 ; perimeter
G1 X119.998 Y54.006 E418.76153 ; perimeter
G1 X118.968 Y55.789 E421.81843 ; perimeter
G1 X117.591 Y57.320 E424.87533 ; perimeter
G1 X115.925 Y58.530 E427.93223 ; perimeter
G1 X114.044 Y59.368 E430.98914 ; perimeter
G1 X112.030 Y59.796 E434.04605 ; perimeter
G1 X109.986 Y59.796 E437.07974 ; perimeter
G1 X107.956 Y59.368 E440.15948 ; perimeter
G1 X106.089 Y58.537 E443.19316 ; perimeter
G1 X104.399 Y57.308 E446.29574 ; perimeter
G1 X103.032 Y55.789 E449.32942 ; perimeter
G1 X102.002 Y54.006 E452.38632 ; perimeter
G1 X101.366 Y52.048 E455.44322 ; perimeter
G1 X101.152 Y49.984 E458.52297 ; perimeter
G1 Z13.7 F3000.000 ; move to next layer (6)
G4 S10
G1 Z3.700 F3000.000 ; move to next layer (6)
G1 X101.366 Y47.952 E461.55666 F300.000 ; perimeter
G1 X102.002 Y45.994 E464.61357 ; perimeter
G1 X103.032 Y44.211 E467.67046 ; perimeter
G1 X104.409 Y42.680 E470.72736 ; perimeter
G1 X106.075 Y41.470 E473.78426 ; perimeter
G1 X107.956 Y40.632 E476.84117 ; perimeter
G1 X109.970 Y40.204 E479.89808 ; perimeter
G1 X112.014 Y40.204 E482.93177 ; perimeter
G1 X114.044 Y40.632 E486.01151 ; perimeter
G1 X115.911 Y41.463 E489.04519 ; perimeter
G1 X117.601 Y42.692 E492.14777 ; perimeter
G1 X118.968 Y44.211 E495.18145 ; perimeter
G1 X119.998 Y45.994 E498.23835 ; perimeter
G1 X120.634 Y47.952 E501.29526 ; perimeter
G1 X120.850 Y50.000 E504.35216 ; perimeter
G1 X120.634 Y52.048 E507.40907 ; perimeter
G1 X119.998 Y54.006 E510.46598 ; perimeter
G1 X118.968 Y55.789 E513.52287 ; perimeter
G1 X117.591 Y57.320 E516.57977 ; perimeter
G1 X115.925 Y58.530 E519.63667 ; perimeter
G1 X114.044 Y59.368 E522.69358 ; perimeter
G1 X112.030 Y59.796 E525.75049 ; perimeter
G1 X109.986 Y59.796 E528.78418 ; perimeter
G1 X107.956 Y59.368 E531.86392 ; perimeter
G1 X106.089 Y58.537 E534.89760 ; perimeter
G1 X104.399 Y57.308 E538.00018 ; perimeter
G1 X103.032 Y55.789 E541.03386 ; perimeter
G1 X102.002 Y54.006 E544.09076 ; perimeter
G1 X101.366 Y52.048 E547.14766 ; perimeter
G1 X101.152 Y49.984 E550.22741 ; perimeter
G1 Z14.2 F3000.000 ; move to next layer (7)
G4 S10
G1 Z4.200 F3000.000 ; move to next layer (7)
G1 X101.150 Y50.000 F3000.000 ; move to first perimeter point
G1 X101.366 Y47.952 E553.28431 F300.000 ; perimeter
G1 X102.002 Y45.994 E556.34122 ; perimeter
G1 X103.032 Y44.211 E559.39811 ; perimeter
G1 X104.409 Y42.680 E562.45502 ; perimeter
G1 X106.075 Y41.470 E565.51192 ; perimeter
G1 X107.956 Y40.632 E568.56883 ; perimeter
G1 X109.970 Y40.204 E571.62574 ; perimeter
G1 X112.014 Y40.204 E574.65943 ; perimeter
G1 X114.044 Y40.632 E577.73916 ; perimeter
G1 X115.911 Y41.463 E580.77285 ; perimeter
G1 X117.601 Y42.692 E583.87542 ; perimeter
G1 X118.968 Y44.211 E586.90911 ; perimeter
G1 X119.998 Y45.994 E589.96600 ; perimeter
G1 X120.634 Y47.952 E593.02291 ; perimeter
G1 X120.850 Y50.000 E596.07982 ; perimeter
G1 X120.634 Y52.048 E599.13672 ; perimeter
G1 X119.998 Y54.006 E602.19363 ; perimeter
G1 X118.968 Y55.789 E605.25053 ; perimeter
G1 X117.591 Y57.320 E608.30743 ; perimeter
G1 X115.925 Y58.530 E611.36433 ; perimeter
G1 X114.044 Y59.368 E614.42123 ; perimeter
G1 X112.030 Y59.796 E617.47815 ; perimeter
G1 X109.986 Y59.796 E620.51184 ; perimeter
G1 X107.956 Y59.368 E623.59157 ; perimeter
G1 X106.089 Y58.537 E626.62526 ; perimeter
G1 X104.399 Y57.308 E629.72784 ; perimeter
G1 X103.032 Y55.789 E632.76152 ; perimeter
G1 X102.002 Y54.006 E635.81841 ; perimeter
G1 X101.366 Y52.048 E638.87532 ; perimeter
G1 X101.150 Y50.000 E641.93223 ; perimeter
G1 Z14.7 F3000.000 ; move to next layer (8)
G4 S10
G1 Z4.700 F3000.000 ; move to next layer (8)
G1 X101.152 Y49.984 F3000.000 ; move to first perimeter point
G1 X101.366 Y47.952 E644.96592 F300.000 ; perimeter
G1 X102.002 Y45.994 E648.02283 ; perimeter
G1 X103.032 Y44.211 E651.07972 ; perimeter
G1 X104.409 Y42.680 E654.13663 ; perimeter
G1 X106.075 Y41.470 E657.19353 ; perimeter
G1 X107.956 Y40.632 E660.25043 ; perimeter
G1 X109.970 Y40.204 E663.30735 ; perimeter
G1 X112.014 Y40.204 E666.34103 ; perimeter
G1 X114.044 Y40.632 E669.42077 ; perimeter
G1 X115.911 Y41.463 E672.45446 ; perimeter
G1 X117.601 Y42.692 E675.55703 ; perimeter
G1 X118.968 Y44.211 E678.59072 ; perimeter
G1 X119.998 Y45.994 E681.64761 ; perimeter
G1 X120.634 Y47.952 E684.70452 ; perimeter
G1 X120.850 Y50.000 E687.76142 ; perimeter
G1 X120.634 Y52.048 E690.81833 ; perimeter
G1 X119.998 Y54.006 E693.87524 ; perimeter
G1 X118.968 Y55.789 E696.93213 ; perimeter
G1 X117.591 Y57.320 E699.98903 ; perimeter
G1 X115.925 Y58.530 E703.04594 ; perimeter
G1 X114.044 Y59.368 E706.10284 ; perimeter
G1 X112.030 Y59.796 E709.15975 ; perimeter
G1 X109.986 Y59.796 E712.19345 ; perimeter
G1 X107.956 Y59.368 E715.27318 ; perimeter
G1 X106.089 Y58.537 E718.30687 ; perimeter
G1 X104.399 Y57.308 E721.40944 ; perimeter
G1 X103.032 Y55.789 E724.44313 ; perimeter
G1 X102.002 Y54.006 E727.50002 ; perimeter
G1 X101.366 Y52.048 E730.55693 ; perimeter
G1 X101.152 Y49.984 E733.63667 ; perimeter
G1 Z15.2 F3000.000 ; move to next layer (9)
G4 S10
G1 Z5.200 F3000.000 ; move to next layer (9)
G1 X101.152 Y49.984 F3000.000 ; move to first perimeter point
G1 X101.366 Y47.952 E736.67037 F300.000 ; perimeter
G1 X102.002 Y45.994 E739.72727 ; perimeter
G1 X103.032 Y44.211 E742.78417 ; perimeter
G1 X104.409 Y42.680 E745.84107 ; perimeter
G1 X106.075 Y41.470 E748.89797 ; perimeter
G1 X107.956 Y40.632 E751.95488 ; perimeter
G1 X109.970 Y40.204 E755.01179 ; perimeter
G1 X112.014 Y40.204 E758.04548 ; perimeter
G1 X114.044 Y40.632 E761.12522 ; perimeter
G1 X115.911 Y41.463 E764.15890 ; perimeter
G1 X117.601 Y42.692 E767.26148 ; perimeter
G1 X118.968 Y44.211 E770.29516 ; perimeter
G1 X119.998 Y45.994 E773.35206 ; perimeter
G1 X120.634 Y47.952 E776.40896 ; perimeter
G1 X120.850 Y50.000 E779.46587 ; perimeter
G1 X120.634 Y52.048 E782.52278 ; perimeter
G1 X119.998 Y54.006 E785.57969 ; perimeter
G1 X118.968 Y55.789 E788.63658 ; perimeter
G1 X117.591 Y57.320 E791.69348 ; perimeter
G1 X115.925 Y58.530 E794.75038 ; perimeter
G1 X114.044 Y59.368 E797.80729 ; perimeter
G1 X112.030 Y59.796 E800.86420 ; perimeter
G1 X109.986 Y59.796 E803.89789 ; perimeter
G1 X107.942 Y59.362 E807.00044 ; perimeter
G1 X106.075 Y58.530 E810.03415 ; perimeter
G1 X104.399 Y57.308 E813.11389 ; perimeter
G1 X103.032 Y55.789 E816.14757 ; perimeter
G1 X102.002 Y54.006 E819.20447 ; perimeter
G1 X101.366 Y52.048 E822.26137 ; perimeter
G1 X101.152 Y49.984 E825.34112 ; perimeter
G1 Z15.7 F3000.000 ; move to next layer (10)
G4 S10
G1 Z5.700 F3000.000 ; move to next layer (10)
G1 X101.150 Y50.000 F3000.000 ; move to first perimeter point
G1 X101.366 Y47.952 E828.39802 F300.000 ; perimeter
G1 X102.002 Y45.994 E831.45493 ; perimeter
G1 X103.032 Y44.211 E834.51182 ; perimeter
G1 X104.399 Y42.692 E837.54551 ; perimeter
G1 X106.089 Y41.463 E840.64809 ; perimeter
G1 X107.956 Y40.632 E843.68177 ; perimeter
G1 X109.986 Y40.204 E846.76151 ; perimeter
G1 X112.030 Y40.204 E849.79520 ; perimeter
G1 X114.044 Y40.632 E852.85211 ; perimeter
G1 X115.925 Y41.470 E855.90901 ; perimeter
G1 X117.591 Y42.680 E858.96592 ; perimeter
G1 X118.968 Y44.211 E862.02282 ; perimeter
G1 X119.998 Y45.994 E865.07971 ; perimeter
G1 X120.634 Y47.952 E868.13662 ; perimeter
G1 X120.850 Y50.000 E871.19353 ; perimeter
G1 X120.634 Y52.048 E874.25043 ; perimeter
G1 X119.998 Y54.006 E877.30734 ; perimeter
G1 X118.968 Y55.789 E880.36423 ; perimeter
G1 X117.601 Y57.308 E883.39792 ; perimeter
G1 X115.911 Y58.537 E886.50050 ; perimeter
G1 X114.044 Y59.368 E889.53418 ; perimeter
G1 X112.014 Y59.796 E892.61392 ; perimeter
G1 X109.970 Y59.796 E895.64760 ; perimeter
G1 X107.956 Y59.368 E898.70452 ; perimeter
G1 X106.075 Y58.530 E901.76142 ; perimeter
G1 X104.409 Y57.320 E904.81832 ; perimeter
G1 X103.032 Y55.789 E907.87523 ; perimeter
G1 X102.002 Y54.006 E910.93212 ; perimeter
G1 X101.366 Y52.048 E913.98903 ; perimeter
G1 X101.150 Y50.000 E917.04594 ; perimeter
G1 Z16.2 F3000.000 ; move to next layer (11)
G4 S10
G1 Z6.200 F3000.000 ; move to next layer (11)
G1 X101.152 Y49.984 F3000.000 ; move to first perimeter point
G1 X101.366 Y47.952 E920.07963 F300.000 ; perimeter
G1 X102.002 Y45.994 E923.13654 ; perimeter
G1 X103.032 Y44.211 E926.19343 ; perimeter
G1 X104.409 Y42.680 E929.25033 ; perimeter
G1 X106.075 Y41.470 E932.30724 ; perimeter
G1 X107.956 Y40.632 E935.36414 ; perimeter
G1 X109.970 Y40.204 E938.42105 ; perimeter
G1 X112.014 Y40.204 E941.45474 ; perimeter
G1 X114.044 Y40.632 E944.53448 ; perimeter
G1 X115.911 Y41.463 E947.56816 ; perimeter
G1 X117.601 Y42.692 E950.67074 ; perimeter
G1 X118.968 Y44.211 E953.70443 ; perimeter
G1 X119.998 Y45.994 E956.76132 ; perimeter
G1 X120.634 Y47.952 E959.81823 ; perimeter
G1 X120.850 Y50.000 E962.87514 ; perimeter
