; generated by Slic3r 1.2.9 on 2018-03-13 at 01:07:34

; external perimeters extrusion width = 0.30mm
; perimeters extrusion width = 0.50mm
; infill extrusion width = 0.34mm
; solid infill extrusion width = 0.34mm
; top infill extrusion width = 0.34mm

M107 ; disable fan
M190 S20 ; set bed temperature
M104 S20 ; set temperature
G28 ; home all axes
G1 Z5 F5000 ; lift nozzle

;M109 S20 ; wait for temperature to be reached
G21 ; set units to millimeters
G90 ; use absolute coordinates
M82 ; use absolute distances for extrusion
G92 E0 ; reset extrusion distance
G1 Z0.450 F7800.000 ; move to next layer (0)
G10 ; retract
G92 E0 ; reset extrusion distance
G1 X101.152 Y49.984 F7800.000 ; move to first perimeter point
G11 ; unretract
G92 E0 ; reset extrusion distance
G1 X101.366 Y47.952 E0.75842 F741.256 ; perimeter
G1 X102.002 Y45.994 E1.52265 ; perimeter
G1 X103.032 Y44.211 E2.28687 ; perimeter
G1 X104.399 Y42.692 E3.04529 ; perimeter
G1 X106.076 Y41.471 E3.81519 ; perimeter
G1 X107.942 Y40.639 E4.57351 ; perimeter
G1 X110.035 Y40.199 E5.36726 ; perimeter
G1 X112.042 Y40.207 E6.11237 ; perimeter
G1 X114.044 Y40.632 E6.87180 ; perimeter
G1 X115.925 Y41.470 E7.63603 ; perimeter
G1 X117.591 Y42.680 E8.40025 ; perimeter
G1 X118.968 Y44.211 E9.16448 ; perimeter
G1 X119.998 Y45.994 E9.92870 ; perimeter
G1 X120.634 Y47.952 E10.69293 ; perimeter
G1 X120.850 Y50.000 E11.45715 ; perimeter
G1 X120.634 Y52.048 E12.22138 ; perimeter
G1 X119.998 Y54.006 E12.98561 ; perimeter
G1 X118.975 Y55.778 E13.74503 ; perimeter
G1 X117.591 Y57.320 E14.51402 ; perimeter
G1 X115.925 Y58.530 E15.27821 ; perimeter
G1 X114.044 Y59.368 E16.04243 ; perimeter
G1 X112.030 Y59.796 E16.80666 ; perimeter
G1 X109.986 Y59.796 E17.56508 ; perimeter
G1 X107.956 Y59.368 E18.33502 ; perimeter
G1 X106.089 Y58.537 E19.09344 ; perimeter
G1 X104.399 Y57.308 E19.86908 ; perimeter
G1 X103.032 Y55.789 E20.62750 ; perimeter
G1 X102.002 Y54.006 E21.39173 ; perimeter
G1 X101.366 Y52.048 E22.15596 ; perimeter
G1 X101.152 Y49.984 E22.92589 ; perimeter
G1 Z0.700 F7800.000 ; move to next layer (1)
G1 X101.366 Y47.952 E23.68431 F741.254 ; perimeter
G1 X102.002 Y45.994 E24.44854 ; perimeter
G1 X103.032 Y44.211 E25.21276 ; perimeter
G1 X104.399 Y42.692 E25.97118 ; perimeter
G1 X106.075 Y41.470 E26.74112 ; perimeter
G1 X107.942 Y40.638 E27.49955 ; perimeter
G1 X109.986 Y40.204 E28.27518 ; perimeter
G1 X112.044 Y40.210 E29.03913 ; perimeter
G1 X114.044 Y40.632 E29.79755 ; perimeter
G1 X115.925 Y41.470 E30.56178 ; perimeter
G1 X117.591 Y42.680 E31.32601 ; perimeter
G1 X118.968 Y44.211 E32.09023 ; perimeter
G1 X119.998 Y45.994 E32.85445 ; perimeter
G1 X120.634 Y47.952 E33.61868 ; perimeter
G1 X120.850 Y50.000 E34.38291 ; perimeter
G1 X120.634 Y52.048 E35.14714 ; perimeter
G1 X119.998 Y54.006 E35.91136 ; perimeter
G1 X118.968 Y55.789 E36.67559 ; perimeter
G1 X117.591 Y57.320 E37.43981 ; perimeter
G1 X115.925 Y58.530 E38.20404 ; perimeter
G1 X114.044 Y59.368 E38.96826 ; perimeter
G1 X112.030 Y59.796 E39.73249 ; perimeter
G1 X109.986 Y59.796 E40.49091 ; perimeter
G1 X107.942 Y59.362 E41.26655 ; perimeter
G1 X106.075 Y58.530 E42.02498 ; perimeter
G1 X104.399 Y57.308 E42.79491 ; perimeter
G1 X103.032 Y55.789 E43.55333 ; perimeter
G1 X102.002 Y54.006 E44.31756 ; perimeter
G1 X101.366 Y52.048 E45.08178 ; perimeter
G1 X101.152 Y49.984 E45.85172 ; perimeter
G1 Z0.950 F7800.000 ; move to next layer (2)
G1 X101.150 Y50.000 F7800.000 ; move to first perimeter point
G1 X101.366 Y47.952 E46.61595 F741.266 ; perimeter
G1 X102.002 Y45.994 E47.38017 ; perimeter
G1 X103.032 Y44.211 E48.14440 ; perimeter
G1 X104.399 Y42.692 E48.90282 ; perimeter
G1 X106.089 Y41.463 E49.67846 ; perimeter
G1 X107.956 Y40.632 E50.43688 ; perimeter
G1 X109.986 Y40.204 E51.20682 ; perimeter
G1 X112.030 Y40.204 E51.96524 ; perimeter
G1 X114.044 Y40.632 E52.72947 ; perimeter
G1 X115.925 Y41.470 E53.49369 ; perimeter
G1 X117.591 Y42.680 E54.25792 ; perimeter
G1 X118.968 Y44.211 E55.02215 ; perimeter
G1 X119.998 Y45.994 E55.78637 ; perimeter
G1 X120.634 Y47.952 E56.55060 ; perimeter
G1 X120.850 Y50.000 E57.31482 ; perimeter
G1 X120.634 Y52.048 E58.07905 ; perimeter
G1 X119.998 Y54.006 E58.84328 ; perimeter
G1 X118.968 Y55.789 E59.60750 ; perimeter
G1 X117.601 Y57.308 E60.36592 ; perimeter
G1 X115.911 Y58.537 E61.14156 ; perimeter
G1 X114.044 Y59.368 E61.89999 ; perimeter
G1 X112.014 Y59.796 E62.66992 ; perimeter
G1 X109.970 Y59.796 E63.42834 ; perimeter
G1 X107.956 Y59.368 E64.19257 ; perimeter
G1 X106.075 Y58.530 E64.95680 ; perimeter
G1 X104.409 Y57.320 E65.72102 ; perimeter
G1 X103.032 Y55.789 E66.48525 ; perimeter
G1 X102.002 Y54.006 E67.24947 ; perimeter
G1 X101.366 Y52.048 E68.01370 ; perimeter
G1 X101.150 Y50.000 E68.77793 ; perimeter
M106 S255 ; enable fan
G1 Z1.200 F7800.000 ; move to next layer (3)
G1 X101.152 Y49.984 F7800.000 ; move to first perimeter point
G1 X101.366 Y47.952 E69.53635 F741.263 ; perimeter
G1 X102.002 Y45.994 E70.30058 ; perimeter
G1 X103.032 Y44.211 E71.06480 ; perimeter
G1 X104.409 Y42.680 E71.82902 ; perimeter
G1 X106.075 Y41.470 E72.59325 ; perimeter
G1 X107.956 Y40.632 E73.35748 ; perimeter
G1 X109.970 Y40.204 E74.12170 ; perimeter
G1 X112.014 Y40.204 E74.88013 ; perimeter
G1 X114.044 Y40.632 E75.65006 ; perimeter
G1 X115.911 Y41.463 E76.40848 ; perimeter
G1 X117.601 Y42.692 E77.18413 ; perimeter
G1 X118.968 Y44.211 E77.94255 ; perimeter
G1 X119.998 Y45.994 E78.70677 ; perimeter
G1 X120.634 Y47.952 E79.47100 ; perimeter
G1 X120.850 Y50.000 E80.23522 ; perimeter
G1 X120.634 Y52.048 E80.99945 ; perimeter
G1 X119.998 Y54.006 E81.76368 ; perimeter
G1 X118.968 Y55.789 E82.52790 ; perimeter
G1 X117.591 Y57.320 E83.29213 ; perimeter
G1 X115.925 Y58.530 E84.05635 ; perimeter
G1 X114.044 Y59.368 E84.82058 ; perimeter
G1 X112.030 Y59.796 E85.58481 ; perimeter
G1 X109.986 Y59.796 E86.34323 ; perimeter
G1 X107.956 Y59.368 E87.11316 ; perimeter
G1 X106.089 Y58.537 E87.87158 ; perimeter
G1 X104.399 Y57.308 E88.64723 ; perimeter
G1 X103.032 Y55.789 E89.40565 ; perimeter
G1 X102.002 Y54.006 E90.16987 ; perimeter
G1 X101.366 Y52.048 E90.93410 ; perimeter
G1 X101.152 Y49.984 E91.70404 ; perimeter
G1 Z1.450 F7800.000 ; move to next layer (4)
G1 X101.150 Y50.000 F7800.000 ; move to first perimeter point
G1 X101.366 Y47.952 E92.46826 F741.266 ; perimeter
G1 X102.002 Y45.994 E93.23249 ; perimeter
G1 X103.032 Y44.211 E93.99671 ; perimeter
G1 X104.399 Y42.692 E94.75513 ; perimeter
G1 X106.089 Y41.463 E95.53078 ; perimeter
G1 X107.956 Y40.632 E96.28920 ; perimeter
G1 X109.986 Y40.204 E97.05913 ; perimeter
G1 X112.030 Y40.204 E97.81756 ; perimeter
G1 X114.044 Y40.632 E98.58178 ; perimeter
G1 X115.925 Y41.470 E99.34601 ; perimeter
G1 X117.591 Y42.680 E100.11023 ; perimeter
G1 X118.968 Y44.211 E100.87446 ; perimeter
G1 X119.998 Y45.994 E101.63868 ; perimeter
G1 X120.634 Y47.952 E102.40291 ; perimeter
G1 X120.850 Y50.000 E103.16714 ; perimeter
G1 X120.634 Y52.048 E103.93136 ; perimeter
G1 X119.998 Y54.006 E104.69559 ; perimeter
G1 X118.968 Y55.789 E105.45981 ; perimeter
G1 X117.601 Y57.308 E106.21824 ; perimeter
G1 X115.925 Y58.530 E106.98817 ; perimeter
G1 X114.058 Y59.362 E107.74660 ; perimeter
G1 X112.014 Y59.796 E108.52223 ; perimeter
G1 X109.970 Y59.796 E109.28066 ; perimeter
G1 X107.956 Y59.368 E110.04489 ; perimeter
G1 X106.075 Y58.530 E110.80911 ; perimeter
G1 X104.409 Y57.320 E111.57334 ; perimeter
G1 X103.032 Y55.789 E112.33756 ; perimeter
G1 X102.002 Y54.006 E113.10179 ; perimeter
G1 X101.366 Y52.048 E113.86601 ; perimeter
G1 X101.150 Y50.000 E114.63024 ; perimeter
G1 Z1.700 F7800.000 ; move to next layer (5)
G1 X101.366 Y47.952 E115.39447 F741.266 ; perimeter
G1 X102.002 Y45.994 E116.15869 ; perimeter
G1 X103.032 Y44.211 E116.92292 ; perimeter
G1 X104.399 Y42.692 E117.68134 ; perimeter
G1 X106.089 Y41.463 E118.45698 ; perimeter
G1 X107.956 Y40.632 E119.21540 ; perimeter
G1 X109.986 Y40.204 E119.98534 ; perimeter
G1 X112.030 Y40.204 E120.74376 ; perimeter
G1 X114.044 Y40.632 E121.50799 ; perimeter
G1 X115.925 Y41.470 E122.27221 ; perimeter
G1 X117.591 Y42.680 E123.03644 ; perimeter
G1 X118.968 Y44.211 E123.80067 ; perimeter
G1 X119.998 Y45.994 E124.56489 ; perimeter
G1 X120.634 Y47.952 E125.32912 ; perimeter
G1 X120.850 Y50.000 E126.09334 ; perimeter
G1 X120.634 Y52.048 E126.85757 ; perimeter
G1 X119.998 Y54.006 E127.62180 ; perimeter
G1 X118.968 Y55.789 E128.38602 ; perimeter
G1 X117.601 Y57.308 E129.14444 ; perimeter
G1 X115.911 Y58.537 E129.92008 ; perimeter
G1 X114.044 Y59.368 E130.67851 ; perimeter
G1 X112.014 Y59.796 E131.44844 ; perimeter
G1 X109.970 Y59.796 E132.20686 ; perimeter
G1 X107.956 Y59.368 E132.97109 ; perimeter
G1 X106.075 Y58.530 E133.73532 ; perimeter
G1 X104.409 Y57.320 E134.49954 ; perimeter
G1 X103.032 Y55.789 E135.26377 ; perimeter
G1 X102.002 Y54.006 E136.02799 ; perimeter
G1 X101.366 Y52.048 E136.79222 ; perimeter
G1 X101.150 Y50.000 E137.55645 ; perimeter
G1 Z1.950 F7800.000 ; move to next layer (6)
G1 X101.152 Y49.984 F7800.000 ; move to first perimeter point
G1 X101.366 Y47.952 E138.31487 F741.263 ; perimeter
G1 X102.002 Y45.994 E139.07910 ; perimeter
G1 X103.032 Y44.211 E139.84332 ; perimeter
G1 X104.409 Y42.680 E140.60754 ; perimeter
G1 X106.075 Y41.470 E141.37177 ; perimeter
G1 X107.956 Y40.632 E142.13600 ; perimeter
G1 X109.970 Y40.204 E142.90022 ; perimeter
G1 X112.014 Y40.204 E143.65865 ; perimeter
G1 X114.044 Y40.632 E144.42858 ; perimeter
G1 X115.911 Y41.463 E145.18700 ; perimeter
G1 X117.601 Y42.692 E145.96265 ; perimeter
G1 X118.968 Y44.211 E146.72107 ; perimeter
G1 X119.998 Y45.994 E147.48529 ; perimeter
G1 X120.634 Y47.952 E148.24952 ; perimeter
G1 X120.850 Y50.000 E149.01374 ; perimeter
G1 X120.634 Y52.048 E149.77797 ; perimeter
G1 X119.998 Y54.006 E150.54220 ; perimeter
G1 X118.968 Y55.789 E151.30642 ; perimeter
G1 X117.591 Y57.320 E152.07065 ; perimeter
G1 X115.925 Y58.530 E152.83487 ; perimeter
G1 X114.044 Y59.368 E153.59910 ; perimeter
G1 X112.030 Y59.796 E154.36333 ; perimeter
G1 X109.986 Y59.796 E155.12175 ; perimeter
G1 X107.956 Y59.368 E155.89168 ; perimeter
G1 X106.089 Y58.537 E156.65010 ; perimeter
G1 X104.399 Y57.308 E157.42575 ; perimeter
G1 X103.032 Y55.789 E158.18417 ; perimeter
G1 X102.002 Y54.006 E158.94839 ; perimeter
G1 X101.366 Y52.048 E159.71262 ; perimeter
G1 X101.152 Y49.984 E160.48256 ; perimeter
G1 Z2.200 F7800.000 ; move to next layer (7)
G1 X101.152 Y49.984 F7800.000 ; move to first perimeter point
G1 X101.366 Y47.952 E161.24098 F741.263 ; perimeter
G1 X102.002 Y45.994 E162.00521 ; perimeter
G1 X103.032 Y44.211 E162.76943 ; perimeter
G1 X104.409 Y42.680 E163.53366 ; perimeter
G1 X106.075 Y41.470 E164.29788 ; perimeter
G1 X107.956 Y40.632 E165.06211 ; perimeter
G1 X109.970 Y40.204 E165.82634 ; perimeter
G1 X112.014 Y40.204 E166.58476 ; perimeter
G1 X114.044 Y40.632 E167.35469 ; perimeter
G1 X115.911 Y41.463 E168.11311 ; perimeter
G1 X117.601 Y42.692 E168.88876 ; perimeter
G1 X118.968 Y44.211 E169.64718 ; perimeter
G1 X119.998 Y45.994 E170.41140 ; perimeter
G1 X120.634 Y47.952 E171.17563 ; perimeter
G1 X120.850 Y50.000 E171.93986 ; perimeter
G1 X120.634 Y52.048 E172.70408 ; perimeter
G1 X119.998 Y54.006 E173.46831 ; perimeter
G1 X118.968 Y55.789 E174.23253 ; perimeter
G1 X117.591 Y57.320 E174.99676 ; perimeter
G1 X115.925 Y58.530 E175.76098 ; perimeter
G1 X114.044 Y59.368 E176.52521 ; perimeter
G1 X112.030 Y59.796 E177.28944 ; perimeter
G1 X109.986 Y59.796 E178.04786 ; perimeter
G1 X107.942 Y59.362 E178.82350 ; perimeter
G1 X106.075 Y58.530 E179.58193 ; perimeter
G1 X104.399 Y57.308 E180.35186 ; perimeter
G1 X103.032 Y55.789 E181.11028 ; perimeter
G1 X102.002 Y54.006 E181.87450 ; perimeter
G1 X101.366 Y52.048 E182.63873 ; perimeter
G1 X101.152 Y49.984 E183.40867 ; perimeter
G1 Z2.450 F7800.000 ; move to next layer (8)
G1 X101.366 Y47.952 E184.16709 F741.263 ; perimeter
G1 X102.002 Y45.994 E184.93132 ; perimeter
G1 X103.032 Y44.211 E185.69554 ; perimeter
G1 X104.409 Y42.680 E186.45977 ; perimeter
G1 X106.075 Y41.470 E187.22399 ; perimeter
G1 X107.956 Y40.632 E187.98822 ; perimeter
G1 X109.970 Y40.204 E188.75245 ; perimeter
G1 X112.014 Y40.204 E189.51087 ; perimeter
G1 X114.044 Y40.632 E190.28080 ; perimeter
G1 X115.911 Y41.463 E191.03922 ; perimeter
G1 X117.601 Y42.692 E191.81487 ; perimeter
G1 X118.968 Y44.211 E192.57329 ; perimeter
G1 X119.998 Y45.994 E193.33751 ; perimeter
G1 X120.634 Y47.952 E194.10174 ; perimeter
G1 X120.850 Y50.000 E194.86597 ; perimeter
G1 X120.634 Y52.048 E195.63019 ; perimeter
G1 X119.998 Y54.006 E196.39442 ; perimeter
G1 X118.968 Y55.789 E197.15864 ; perimeter
G1 X117.591 Y57.320 E197.92287 ; perimeter
G1 X115.925 Y58.530 E198.68709 ; perimeter
G1 X114.044 Y59.368 E199.45132 ; perimeter
G1 X112.030 Y59.796 E200.21555 ; perimeter
G1 X109.986 Y59.796 E200.97397 ; perimeter
G1 X107.942 Y59.362 E201.74961 ; perimeter
G1 X106.075 Y58.530 E202.50803 ; perimeter
G1 X104.399 Y57.308 E203.27797 ; perimeter
G1 X103.032 Y55.789 E204.03639 ; perimeter
G1 X102.002 Y54.006 E204.80062 ; perimeter
G1 X101.366 Y52.048 E205.56484 ; perimeter
G1 X101.152 Y49.984 E206.33478 ; perimeter
G1 Z2.700 F7800.000 ; move to next layer (9)
G1 X101.366 Y47.952 E207.09320 F741.263 ; perimeter
G1 X102.002 Y45.994 E207.85743 ; perimeter
G1 X103.032 Y44.211 E208.62165 ; perimeter
G1 X104.409 Y42.680 E209.38588 ; perimeter
G1 X106.075 Y41.470 E210.15010 ; perimeter
G1 X107.956 Y40.632 E210.91433 ; perimeter
G1 X109.970 Y40.204 E211.67856 ; perimeter
G1 X112.014 Y40.204 E212.43698 ; perimeter
G1 X114.044 Y40.632 E213.20691 ; perimeter
G1 X115.911 Y41.463 E213.96533 ; perimeter
G1 X117.601 Y42.692 E214.74098 ; perimeter
G1 X118.968 Y44.211 E215.49940 ; perimeter
G1 X119.998 Y45.994 E216.26362 ; perimeter
G1 X120.634 Y47.952 E217.02785 ; perimeter
G1 X120.850 Y50.000 E217.79208 ; perimeter
G1 X120.634 Y52.048 E218.55630 ; perimeter
G1 X119.998 Y54.006 E219.32053 ; perimeter
G1 X118.968 Y55.789 E220.08475 ; perimeter
G1 X117.591 Y57.320 E220.84898 ; perimeter
G1 X115.925 Y58.530 E221.61320 ; perimeter
G1 X114.044 Y59.368 E222.37743 ; perimeter
G1 X112.030 Y59.796 E223.14166 ; perimeter
G1 X109.986 Y59.796 E223.90008 ; perimeter
G1 X107.942 Y59.362 E224.67572 ; perimeter
G1 X106.075 Y58.530 E225.43415 ; perimeter
G1 X104.399 Y57.308 E226.20408 ; perimeter
G1 X103.032 Y55.789 E226.96250 ; perimeter
G1 X102.002 Y54.006 E227.72673 ; perimeter
G1 X101.366 Y52.048 E228.49095 ; perimeter
G1 X101.152 Y49.984 E229.26089 ; perimeter
G1 Z2.950 F7800.000 ; move to next layer (10)
G1 X101.152 Y49.984 F7800.000 ; move to first perimeter point
G1 X101.366 Y47.952 E230.01931 F741.263 ; perimeter
G1 X102.002 Y45.994 E230.78354 ; perimeter
G1 X103.032 Y44.211 E231.54776 ; perimeter
G1 X104.409 Y42.680 E232.31199 ; perimeter
G1 X106.075 Y41.470 E233.07621 ; perimeter
G1 X107.956 Y40.632 E233.84044 ; perimeter
G1 X109.970 Y40.204 E234.60467 ; perimeter
G1 X112.014 Y40.204 E235.36309 ; perimeter
G1 X114.044 Y40.632 E236.13302 ; perimeter
G1 X115.911 Y41.463 E236.89144 ; perimeter
G1 X117.601 Y42.692 E237.66709 ; perimeter
G1 X118.968 Y44.211 E238.42551 ; perimeter
G1 X119.998 Y45.994 E239.18973 ; perimeter
G1 X120.634 Y47.952 E239.95396 ; perimeter
G1 X120.850 Y50.000 E240.71819 ; perimeter
G1 X120.634 Y52.048 E241.48241 ; perimeter
G1 X119.998 Y54.006 E242.24664 ; perimeter
G1 X118.968 Y55.789 E243.01086 ; perimeter
G1 X117.591 Y57.320 E243.77509 ; perimeter
G1 X115.925 Y58.530 E244.53931 ; perimeter
G1 X114.044 Y59.368 E245.30354 ; perimeter
G1 X112.030 Y59.796 E246.06777 ; perimeter
G1 X109.986 Y59.796 E246.82619 ; perimeter
G1 X107.942 Y59.362 E247.60183 ; perimeter
G1 X106.075 Y58.530 E248.36026 ; perimeter
G1 X104.399 Y57.308 E249.13019 ; perimeter
G1 X103.032 Y55.789 E249.88861 ; perimeter
G1 X102.002 Y54.006 E250.65284 ; perimeter
G1 X101.366 Y52.048 E251.41706 ; perimeter
G1 X101.152 Y49.984 E252.18700 ; perimeter
G1 Z3.200 F7800.000 ; move to next layer (11)
G1 X101.366 Y47.952 E252.94542 F741.263 ; perimeter
G1 X102.002 Y45.994 E253.70965 ; perimeter
G1 X103.032 Y44.211 E254.47387 ; perimeter
G1 X104.409 Y42.680 E255.23810 ; perimeter
